dist/img/16.svg

<svg version="1.1" xmlns="http://www.w3.org/2000/svg" xmlns:xlink="http://www.w3.org/1999/xlink" x="0px" y="0px" width="439px" height="512px"><path d="M219.4269257,512C98.282959,512,0,479.2276306,0,438.8538818v-73.1461182c0-6.3496399,3.1861994-12.4034424,7.7606807-18.2751465c24.4654884,31.4978943,109.5370941,54.8482056,211.6776276,54.8482056s187.2121429-23.3503113,211.677597-54.8482056c4.5744934,5.8945007,7.737915,11.9255066,7.737915,18.2751465v73.1461182C438.8538208,479.2048645,340.5708618,512,219.4269257,512z M438.8765869,219.4155731c0,21.1882477,0,43.6282501,0,73.1461029c0,40.3509827-98.2943726,73.1461182-219.4382782,73.1461182S0,332.9126587,0,292.561676v-73.1461029c0.3004173-7.2351074,4.0856385-13.3283844,7.7606807-18.2978973c24.4654884,31.4751282,109.5370941,54.8481903,211.6776276,54.8481903s187.2121429-23.3730774,211.677597-54.8481903C435.4213867,207.0584717,438.721283,213.1322021,438.8765869,219.4155731z M219.4155579,219.438324C98.2715836,219.438324,0,186.6659698,0,146.2922211c0-11.5613708,0-60.2647629,0-73.1461182C0,32.7723579,98.2715836,0,219.4155579,0s219.4155273,32.7723694,219.4155273,73.1461029c0,11.4020615,0,59.5819855,0,73.1461182C438.8310852,186.6659698,340.5594788,219.438324,219.4155579,219.438324z M365.6854858,73.1689987c0-28.0495338-122.2764282-45.6756744-219.5693359-31.6509056s-97.2928619,49.27705,0.0000305,63.301815S365.6854858,101.2185364,365.6854858,73.1689987z"/></svg>

<svg xmlns="http://www.w3.org/2000/svg" width="439" height="512"><path d="M219.427 512C98.283 512 0 479.228 0 438.854v-73.146c0-6.35 3.186-12.404 7.76-18.275 24.466 31.498 109.538 54.848 211.678 54.848s187.212-23.35 211.678-54.848c4.574 5.894 7.738 11.925 7.738 18.275v73.146c0 40.35-98.283 73.146-219.427 73.146zm219.45-292.584v73.146c0 40.35-98.295 73.146-219.439 73.146S0 332.913 0 292.562v-73.146c.3-7.236 4.086-13.329 7.76-18.298 24.466 31.475 109.538 54.848 211.678 54.848s187.212-23.373 211.678-54.848c4.305 5.94 7.605 12.014 7.76 18.298zm-219.461.022C98.272 219.438 0 186.666 0 146.292V73.146C0 32.772 98.272 0 219.416 0S438.83 32.772 438.83 73.146v73.146c0 40.374-98.272 73.146-219.415 73.146zM365.686 73.17c0-28.05-122.277-45.676-219.57-31.65s-97.293 49.276 0 63.3 219.57-3.6 219.57-31.65z"/></svg>
